src/view/frontend/web/svg/heroicons/outline/credit-card.svg

<svg  viewBox="0 0 24 24" fill="none" stroke="currentColor" xmlns="http://www.w3.org/2000/svg">
<path d="M3 10H21M7 15H8M12 15H13M6 19H18C19.6569 19 21 17.6569 21 16V8C21 6.34315 19.6569 5 18 5H6C4.34315 5 3 6.34315 3 8V16C3 17.6569 4.34315 19 6 19Z"  stroke-width="2" stroke-linecap="round" stroke-linejoin="round"/>
</svg>

<svg xmlns="http://www.w3.org/2000/svg" fill="none" stroke="currentColor" viewBox="0 0 24 24"><path stroke-linecap="round" stroke-linejoin="round" stroke-width="2" d="M3 10h18M7 15h1m4 0h1m-7 4h12a3 3 0 0 0 3-3V8a3 3 0 0 0-3-3H6a3 3 0 0 0-3 3v8a3 3 0 0 0 3 3Z"/></svg>
